X: 1
T: Culburnie Cottage
C: Alasdair Fraser
N: (Ask permission)
Z: John Chambers <jc:trillian.mit.edu>
M: C|
L: 1/8
K: D
fe \
| "D"d2AF DFAF | "G"GDGA "Em"B2cB | "D"Aa^ga =gfed | "A7"ceAc egfe | "D"d2AF DFAF |
| "G"GDGA "Em"B2cB | "D"Aa^ga "A7"=gecA | "D"d6 :: fg | "D"a2fa "A7"gece | "D"dAFA d2cd |
| "A7"ecAc eAce | "D"fdba "A7"agfg | "D"a2fa "A7"gece | "Bm"dAFA "G"d2cd | "A7"ea^ga =gecA | "D"d6 :|
